X: 114
T: Mam przecz Pana miłować, który z łaski swojej
C: Mikołaj Gomółka
%%abc-version 2.0
%%abcx-abcm2ps-target-version 5.9.1 (29 Sep 2008)
%%abc-creator hum2abc beta
%%abcx-conversion-date 2021/10/04 07:59:10
%%abc-edited-by Leszek Kubiak
%%abcx-initial-encoding-date data 2020-02-19
%%humdrum-veritas 3366638025
%%humdrum-veritas-data 4127743043
%%linebreak <none>
%%barnumbers 0
L: 1/4
M: C|
N: Derived from pl-wn--sd-xvi-qu-273--116_gomolka-mikolaj--mam-przecz-pana-milowac-ktory-z-laski-swojej.krn
%%staves [1 2 3 4]
V: 1 clef=treble
V: 2
V: 3 clef=alto
V: 4
K: F
[V:1] A2c2B3A [|] 
[V:2] F2F2>E2D2 [|] 
[V:3] C2A,2D3C [|] 
[V:4] F,2F,2B,,2B,,2 [|] 
[V:1] GFG2F2A2 [|] 
[V:2] EF2EF2C2 [|] 
[V:3] C2>B,2A,G,F,2 [|] 
[V:4] C,2C,2F,2F,2 [|] 
[V:1] G2F2F2E2 [|] 
[V:2] C2D2D2CB, [|] 
[V:3] G,2A,2B,2G,2 [|] 
[V:4] E,2D,2B,,2C,2 [|] 
[V:1] F4A2c2 [|] 
[V:2] A,4A3G [|] 
[V:3] F,4F3E [|] 
[V:4] F,4F,2F,2 [|] 
[V:1] Bcdef2g2 [|] 
[V:2] F2>G2A2G2 [|] 
[V:3] DCB,2C2E2 [|] 
[V:4] B,2G,2F,2C2 [|] 
[V:1] f2>e2d2d2 [|] 
[V:2] B2A4G2 [|] 
[V:3] F2F2F2ED [|] 
[V:4] D2>C2B,2B,2 [|] 
[V:1] c4f2e2 [|] 
[V:2] A4A2A2 [|] 
[V:3] E4D2E2 [|] 
[V:4] A,4D,2^C,2 [|] 
[V:1] d2>c2B2B2 [|] 
[V:2] A2>G2F2G2 [|] 
[V:3] F2>E2DCDE [|] 
[V:4] D,2A,2B,2G,2 [|] 
[V:1] A2c2B2A2 [|] 
[V:2] C2C2G2FE [|] 
[V:3] F2>E2D2C2 [|] 
[V:4] F,2F,2G,2A,2 [|] 
[V:1] F2G2A4 [|] 
[V:2] DCDEF4 [|] 
[V:3] B,C2B,C4 [|] 
[V:4] B,2G,2F,4 [|] 
[V:1] d4d2B2 [|] 
[V:2] F4G2G2 [|] 
[V:3] D4D2D2 [|] 
[V:4] D,4G,2G,2 [|] 
[V:1] c2>B2A2d2 [|] 
[V:2] G4C2D2 [|] 
[V:3] E4F2F2 [|] 
[V:4] C,4F,2D,2 [|] 
[V:1] B2B2c3B [|] 
[V:2] D2GFEFE2 [|] 
[V:3] D2D2C4 [|] 
[V:4] G,2G,2C,4 [|] 
[V:1] A32 [|] 
[V:2] F32 [|] 
[V:3] C32 [|] 
[V:4] F,32 [|] 


